X:60
T:AVANT DEUX DE CANDE
Z: Yves BELOTTEAU
M:6/8
L:1/8
Q:1/4=120
K:G
|:DGB3/2 z/2 BB|ABc dcB|dBA GAB|AGD3/2 z/2 DD:|
Ged3/2 z/2 BG|Ged3/2 z/2 BG3/2 z/2 |BcB AGF|ED3/2 z/2 DDG|
ed3/2 z/2 BGG|ed3/2 z/2 BG3/2 z/2 |BcB AGF|AG3/2 z/2 G3/2 z/2 |
D3/2 z/2 D3/2|
